bootstrap/badge-ar.svg

<svg xmlns="http://www.w3.org/2000/svg" width="16" height="16" fill="currentColor" class="bi bi-badge-ar" viewBox="0 0 16 16">
  <path d="m3.794 11 .47-1.542H6.27L6.739 11H8L5.996 5.001H4.607L2.595 11zm1.503-4.852.734 2.426h-1.52l.734-2.426zm5.598-1.147H8.5V11h1.173V8.763h1.064L11.787 11h1.327L11.91 8.583C12.455 8.373 13 7.779 13 6.9c0-1.147-.773-1.9-2.105-1.9zm-1.222 2.87V5.933h1.05c.63 0 1.05.347 1.05.989 0 .633-.408.95-1.067.95z"/>
  <path d="M14 3a1 1 0 0 1 1 1v8a1 1 0 0 1-1 1H2a1 1 0 0 1-1-1V4a1 1 0 0 1 1-1zM2 2a2 2 0 0 0-2 2v8a2 2 0 0 0 2 2h12a2 2 0 0 0 2-2V4a2 2 0 0 0-2-2z"/>
</svg>

<svg viewBox="0 0 16 16" xmlns="http://www.w3.org/2000/svg"><g><path d="M3.794 11l.47-1.55h2l.46 1.54h1.26L5.974 4.99H4.58L2.56 10.99h1.2Zm1.5-4.86l.734 2.42H4.5L5.24 6.13h.05Zm5.598-1.15h-2.4v5.999h1.173V8.752h1.06l1.05 2.237h1.32L11.88 8.57c.54-.21 1.09-.81 1.09-1.69 0-1.15-.78-1.9-2.11-1.9ZM9.66 7.86V5.92h1.05c.63 0 1.05.34 1.05.98 0 .633-.41.95-1.07.95H9.65Z"/><path d="M14 3v0c.55 0 1 .44 1 1v8 0c0 .55-.45 1-1 1H2v0c-.56 0-1-.45-1-1V4v0c0-.56.44-1 1-1h12ZM2 2v0C.89 2 0 2.89 0 4v8 0c0 1.1.89 2 2 2h12v0c1.1 0 2-.9 2-2V4v0c0-1.11-.9-2-2-2H2Z"/></g></svg>
